static/logos/walletconnect-glyph-color.svg

<svg width="50" height="31" viewBox="0 0 50 31" fill="none" xmlns="http://www.w3.org/2000/svg">
<g clip-path="url(#clip0_1_443)">
<path d="M10.2422 5.99728C18.3886 -1.97875 31.5966 -1.97875 39.743 5.99728L40.7235 6.95721C41.1307 7.35601 41.1307 8.00259 40.7235 8.40139L37.3697 11.6851C37.1659 11.8845 36.8358 11.8845 36.632 11.6851L35.2829 10.3642C29.5997 4.79987 20.3855 4.79987 14.7024 10.3642L13.2576 11.7788C13.0538 11.9782 12.7237 11.9782 12.52 11.7788L9.16612 8.49508C8.7588 8.09628 8.7588 7.44969 9.16612 7.05089L10.2422 5.99728ZM46.6792 12.7884L49.6641 15.711C50.0715 16.1097 50.0715 16.7563 49.6641 17.155L36.2047 30.3331C35.7975 30.732 35.1371 30.732 34.7297 30.3331L25.1771 20.9803C25.0752 20.8805 24.9101 20.8805 24.8083 20.9803L15.2559 30.3331C14.8485 30.732 14.1882 30.732 13.7809 30.3331L0.321115 17.1549C-0.0862052 16.7561 -0.0862052 16.1095 0.321115 15.7107L3.30607 12.7882C3.71339 12.3894 4.37379 12.3894 4.78111 12.7882L14.3338 22.1411C14.4358 22.2409 14.6009 22.2409 14.7027 22.1411L24.255 12.7882C24.6623 12.3894 25.3226 12.3894 25.73 12.7882C25.73 12.7882 25.73 12.7882 25.73 12.7882L35.2828 22.1411C35.3846 22.2409 35.5497 22.2409 35.6515 22.1411L45.2041 12.7884C45.6114 12.3896 46.2719 12.3896 46.6792 12.7884Z" fill="#3B99FC"/>
</g>
<defs>
<clipPath id="clip0_1_443">
<rect width="50" height="30.6701" fill="white"/>
</clipPath>
</defs>
</svg>

<svg xmlns="http://www.w3.org/2000/svg" width="103.226" height="64" fill="none" viewBox="0 0 50 31"><g clip-path="url(#a)"><path fill="#3B99FC" d="M10.242 5.997c8.147-7.976 21.355-7.976 29.501 0l.98.96a1.006 1.006 0 0 1 0 1.444l-3.353 3.284a.53.53 0 0 1-.738 0l-1.35-1.32c-5.682-5.565-14.896-5.565-20.58 0l-1.444 1.414a.53.53 0 0 1-.738 0L9.166 8.495a1.006 1.006 0 0 1 0-1.444l1.076-1.054Zm36.437 6.791 2.985 2.923a1.006 1.006 0 0 1 0 1.444l-13.46 13.178a1.059 1.059 0 0 1-1.474 0l-9.553-9.353a.265.265 0 0 0-.369 0l-9.552 9.353a1.059 1.059 0 0 1-1.475 0L.32 17.155a1.006 1.006 0 0 1 0-1.444l2.985-2.923a1.059 1.059 0 0 1 1.475 0l9.553 9.353c.102.1.267.1.369 0l9.552-9.353a1.059 1.059 0 0 1 1.475 0l9.553 9.353c.102.1.267.1.368 0l9.553-9.353a1.059 1.059 0 0 1 1.475 0Z"/></g><defs><clipPath id="a"><path fill="#fff" d="M0 0h50v30.67H0z"/></clipPath></defs></svg>
